localPackages/DesignSystem/Sources/DesignSystem/Resources/Assets.xcassets/IconSet/ic-arrow-down-to-square.imageset/ic-arrow-down-to-square.svg

<svg width="24" height="24" viewBox="0 0 24 24" fill="none" xmlns="http://www.w3.org/2000/svg">
<g id="ic-arrow-down-to-square">
<g id="$full-background">
<g id="Icon">
<path d="M12.7425 14.7804C12.3324 15.1904 11.6676 15.1904 11.2575 14.7804L7.71967 11.2425C7.42678 10.9496 7.42678 10.4747 7.71967 10.1818C8.01256 9.88893 8.48744 9.88893 8.78033 10.1818L11.25 12.6515V2.25C11.25 1.83579 11.5858 1.5 12 1.5C12.4142 1.5 12.75 1.83579 12.75 2.25V12.6515L15.2197 10.1818C15.5126 9.88893 15.9874 9.88893 16.2803 10.1818C16.5732 10.4747 16.5732 10.9496 16.2803 11.2425L12.7425 14.7804Z" fill="#0F0F0F"/>
<path d="M4.5 9.00002C4.5 8.1716 5.17157 7.50002 6 7.50002H9.09976V6.00002H6C4.34315 6.00002 3 7.34317 3 9.00002V19.5C3 21.1569 4.34315 22.5 6 22.5H18C19.6569 22.5 21 21.1569 21 19.5V9.00002C21 7.34317 19.6569 6.00002 18 6.00002H15V7.50002H18C18.8284 7.50002 19.5 8.1716 19.5 9.00002V19.5C19.5 20.3285 18.8284 21 18 21H6C5.17157 21 4.5 20.3285 4.5 19.5V9.00002Z" fill="#0F0F0F"/>
</g>
</g>
</g>
</svg>

<svg xmlns="http://www.w3.org/2000/svg" width="24" height="24" viewBox="0 0 24 24">
  <g class="ic-arrow-down-to-square">
    <g class="$full-background">
      <g class="Icon">
        <path d="M12.742 14.78a1.05 1.05 0 0 1-1.485 0L7.72 11.243a.75.75 0 0 1 1.06-1.061l2.47 2.47V2.25a.75.75 0 0 1 1.5 0v10.402l2.47-2.47a.75.75 0 1 1 1.06 1.06l-3.538 3.538Z"/>
        <path d="M4.5 9A1.5 1.5 0 0 1 6 7.5h3.1V6H6a3 3 0 0 0-3 3v10.5a3 3 0 0 0 3 3h12a3 3 0 0 0 3-3V9a3 3 0 0 0-3-3h-3v1.5h3A1.5 1.5 0 0 1 19.5 9v10.5A1.5 1.5 0 0 1 18 21H6a1.5 1.5 0 0 1-1.5-1.5V9Z"/>
      </g>
    </g>
  </g>
</svg>
